img/check.svg

<svg width="14" height="14" viewBox="0 0 14 14" fill="none" xmlns="http://www.w3.org/2000/svg">
<g clip-path="url(#clip0)">
<path d="M13.4739 1.66594L13.099 1.34389C12.4767 0.809159 11.5417 0.868764 10.9923 1.47797L4.72124 8.43137L2.82829 6.80103C2.2067 6.26571 1.2715 6.32411 0.72147 6.93266L0.39002 7.29942C0.12123 7.59667 -0.0183323 7.98878 0.00193546 8.38932C0.0224031 8.78962 0.200988 9.16543 0.498695 9.43411L3.96856 12.6116C4.26898 12.8937 4.6716 13.0409 5.08312 13.019C5.49464 12.9972 5.87939 12.8082 6.14821 12.4958L13.6343 3.79749C13.8958 3.49359 14.0259 3.09828 13.9957 2.69857C13.9656 2.29859 13.7779 1.9272 13.4739 1.66594Z" fill="#FEA755"/>
</g>
<defs>
<clipPath id="clip0">
<rect width="14" height="14" fill="white"/>
</clipPath>
</defs>
</svg>

<svg width="14" height="14" fill="none" xmlns="http://www.w3.org/2000/svg"><g clip-path="url(#clip0)"><path d="M13.474 1.666l-.375-.322a1.51 1.51 0 00-2.107.134l-6.27 6.953-1.894-1.63a1.51 1.51 0 00-2.107.132l-.331.366a1.511 1.511 0 00.109 2.135l3.47 3.178a1.511 1.511 0 002.18-.116l7.485-8.699a1.51 1.51 0 00-.16-2.131z" fill="#FEA755"/></g><defs><clipPath id="clip0"><path fill="#fff" d="M0 0h14v14H0z"/></clipPath></defs></svg>
